Numix-Light/16/status/indicator-keyboard-Tk-2.svg

<?xml version="1.0" encoding="UTF-8" standalone="no"?>
<svg
   xmlns:dc="http://purl.org/dc/elements/1.1/"
   xmlns:cc="http://creativecommons.org/ns#"
   xmlns:rdf="http://www.w3.org/1999/02/22-rdf-syntax-ns#"
   xmlns:svg="http://www.w3.org/2000/svg"
   xmlns="http://www.w3.org/2000/svg"
   xmlns:sodipodi="http://sodipodi.sourceforge.net/DTD/sodipodi-0.dtd"
   xmlns:inkscape="http://www.inkscape.org/namespaces/inkscape"
   viewBox="0 0 16 16"
   id="svg2"
   version="1.1"
   inkscape:version="0.91 r13725"
   sodipodi:docname="indicator-keyboard-Tk-2.svg">
  <metadata
     id="metadata14">
    <rdf:RDF>
      <cc:Work
         rdf:about="">
        <dc:format>image/svg+xml</dc:format>
        <dc:type
           rdf:resource="http://purl.org/dc/dcmitype/StillImage" />
      </cc:Work>
    </rdf:RDF>
  </metadata>
  <defs
     id="defs12" />
  <sodipodi:namedview
     pagecolor="#ffffff"
     bordercolor="#666666"
     borderopacity="1"
     objecttolerance="10"
     gridtolerance="10"
     guidetolerance="10"
     inkscape:pageopacity="0"
     inkscape:pageshadow="2"
     inkscape:window-width="640"
     inkscape:window-height="480"
     id="namedview10"
     showgrid="false"
     inkscape:zoom="14.75"
     inkscape:cx="8"
     inkscape:cy="8"
     inkscape:window-x="65"
     inkscape:window-y="24"
     inkscape:window-maximized="0"
     inkscape:current-layer="svg2" />
  <path
     style="fill:#353535;fill-opacity:1"
     d="M 1.5996094 0 C 0.71320937 2.9605947e-16 0 0.71320937 0 1.5996094 L 0 14.400391 C 2.9605947e-16 15.286791 0.71320937 16 1.5996094 16 L 14.400391 16 C 15.286791 16 16 15.286791 16 14.400391 L 16 1.5996094 C 16 0.71320937 15.286791 0 14.400391 0 L 1.5996094 0 z M 8.1191406 4.1113281 L 8.1191406 8.5390625 C 8.2691406 8.3950625 8.439 8.2309219 8.625 8.0449219 C 8.811 7.8589219 8.9956406 7.6705156 9.1816406 7.4785156 C 9.3736406 7.2865156 9.5546563 7.0999219 9.7226562 6.9199219 C 9.8906563 6.7399219 10.034297 6.5813594 10.154297 6.4433594 L 10.855469 6.4433594 C 10.717469 6.5873594 10.562672 6.7496875 10.388672 6.9296875 C 10.214672 7.1096875 10.031844 7.2980937 9.8398438 7.4960938 C 9.6538438 7.6880937 9.46725 7.8765 9.28125 8.0625 L 8.7773438 8.5664062 C 8.9633437 8.6924062 9.1610938 8.8547344 9.3710938 9.0527344 C 9.5870938 9.2507344 9.7979529 9.4671719 10.001953 9.7011719 C 10.211953 9.9291721 10.405938 10.166109 10.585938 10.412109 C 10.771937 10.652109 10.928688 10.879703 11.054688 11.095703 L 10.361328 11.095703 C 10.217328 10.855703 10.051235 10.622531 9.8652344 10.394531 C 9.6852344 10.160531 9.4950156 9.9403283 9.2910156 9.7363281 C 9.0930156 9.5323281 8.8915 9.3476875 8.6875 9.1796875 C 8.4895 9.0116875 8.2991406 8.8698594 8.1191406 8.7558594 L 8.1191406 11.095703 L 7.5351562 11.095703 L 7.5351562 4.2207031 L 8.1191406 4.1113281 z M 1.984375 4.859375 L 6.5917969 4.859375 L 6.5917969 5.390625 L 4.59375 5.390625 L 4.59375 11.095703 L 3.9824219 11.095703 L 3.9824219 5.390625 L 1.984375 5.390625 L 1.984375 4.859375 z M 12.6875 8.7539062 C 13.0814 8.7539062 13.379225 8.851875 13.578125 9.046875 C 13.777025 9.237975 13.875 9.5044563 13.875 9.8476562 C 13.875 9.9997563 13.849522 10.14475 13.794922 10.28125 C 13.740322 10.41385 13.665866 10.543169 13.572266 10.667969 C 13.482566 10.792769 13.378719 10.912297 13.261719 11.029297 C 13.144719 11.146297 13.025197 11.263859 12.904297 11.380859 C 12.802897 11.478359 12.704922 11.578288 12.607422 11.679688 C 12.513822 11.777187 12.427609 11.877116 12.349609 11.978516 C 12.275509 12.076016 12.214769 12.172031 12.167969 12.269531 C 12.125069 12.363131 12.103516 12.457181 12.103516 12.550781 L 12.103516 12.5625 L 14.015625 12.5625 L 14.015625 12.896484 L 11.681641 12.896484 C 11.681641 12.888684 11.679715 12.874969 11.675781 12.855469 L 11.675781 12.755859 C 11.675781 12.572559 11.709091 12.402094 11.775391 12.246094 C 11.841691 12.086194 11.925944 11.937275 12.027344 11.796875 C 12.132644 11.656475 12.248247 11.525197 12.373047 11.404297 C 12.501747 11.283397 12.623234 11.165834 12.740234 11.052734 C 12.837734 10.959134 12.929825 10.869003 13.015625 10.783203 C 13.105325 10.693503 13.1837 10.603366 13.25 10.509766 C 13.3163 10.416166 13.369203 10.316237 13.408203 10.210938 C 13.447203 10.105638 13.466797 9.9900344 13.466797 9.8652344 C 13.466797 9.5922344 13.392341 9.39825 13.244141 9.28125 C 13.099841 9.16035 12.915659 9.0996094 12.693359 9.0996094 C 12.568559 9.0996094 12.458828 9.1152844 12.361328 9.1464844 C 12.263828 9.1776844 12.177616 9.2149125 12.103516 9.2578125 C 12.033316 9.2968125 11.972575 9.3379594 11.921875 9.3808594 C 11.871175 9.4237594 11.833947 9.4570688 11.810547 9.4804688 L 11.611328 9.2167969 C 11.634728 9.1894969 11.675875 9.1503094 11.734375 9.0996094 C 11.796775 9.0450094 11.873191 8.9921062 11.962891 8.9414062 C 12.056491 8.8907063 12.164256 8.8476 12.285156 8.8125 C 12.406056 8.7735 12.5393 8.7539063 12.6875 8.7539062 z "
     id="path4" />
</svg>

<svg xmlns="http://www.w3.org/2000/svg" viewBox="0 0 16 16">
 <path d="m 1.6 0 c -0.886 0 -1.6 0.713 -1.6 1.6 l 0 12.801 c 0 0.886 0.713 1.6 1.6 1.6 l 12.801 0 c 0.886 0 1.6 -0.713 1.6 -1.6 l 0 -12.801 c 0 -0.886 -0.713 -1.6 -1.6 -1.6 l -12.801 0 z m 6.52 4.111 l 0 4.428 c 0.15 -0.144 0.32 -0.308 0.506 -0.494 c 0.186 -0.186 0.371 -0.374 0.557 -0.566 c 0.192 -0.192 0.373 -0.379 0.541 -0.559 c 0.168 -0.18 0.312 -0.339 0.432 -0.477 l 0.701 0 c -0.138 0.144 -0.293 0.306 -0.467 0.486 c -0.174 0.18 -0.357 0.368 -0.549 0.566 c -0.186 0.192 -0.373 0.38 -0.559 0.566 l -0.504 0.504 c 0.186 0.126 0.384 0.288 0.594 0.486 c 0.216 0.198 0.427 0.414 0.631 0.648 c 0.21 0.228 0.404 0.465 0.584 0.711 c 0.186 0.24 0.343 0.468 0.469 0.684 l -0.693 0 c -0.144 -0.24 -0.31 -0.473 -0.496 -0.701 c -0.18 -0.234 -0.37 -0.454 -0.574 -0.658 c -0.198 -0.204 -0.4 -0.389 -0.604 -0.557 c -0.198 -0.168 -0.388 -0.31 -0.568 -0.424 l 0 2.34 l -0.584 0 l 0 -6.875 l 0.584 -0.109 z m -6.135 0.748 l 4.607 0 l 0 0.531 l -1.998 0 l 0 5.705 l -0.611 0 l 0 -5.705 l -1.998 0 l 0 -0.531 z m 10.703 3.895 c 0.394 0 0.692 0.098 0.891 0.293 c 0.199 0.191 0.297 0.458 0.297 0.801 c 0 0.152 -0.025 0.297 -0.08 0.434 c -0.055 0.133 -0.129 0.262 -0.223 0.387 c -0.09 0.125 -0.194 0.244 -0.311 0.361 c -0.117 0.117 -0.237 0.235 -0.357 0.352 c -0.101 0.098 -0.199 0.197 -0.297 0.299 c -0.094 0.097 -0.18 0.197 -0.258 0.299 c -0.074 0.097 -0.135 0.194 -0.182 0.291 c -0.043 0.094 -0.064 0.188 -0.064 0.281 l 0 0.012 l 1.912 0 l 0 0.334 l -2.334 0 c 0 -0.008 -0.002 -0.022 -0.006 -0.041 l 0 -0.1 c 0 -0.183 0.033 -0.354 0.1 -0.51 c 0.066 -0.16 0.151 -0.309 0.252 -0.449 c 0.105 -0.14 0.221 -0.272 0.346 -0.393 c 0.129 -0.121 0.25 -0.238 0.367 -0.352 c 0.098 -0.094 0.19 -0.184 0.275 -0.27 c 0.09 -0.09 0.168 -0.18 0.234 -0.273 c 0.066 -0.094 0.119 -0.194 0.158 -0.299 c 0.039 -0.105 0.059 -0.221 0.059 -0.346 c 0 -0.273 -0.074 -0.467 -0.223 -0.584 c -0.144 -0.121 -0.328 -0.182 -0.551 -0.182 c -0.125 0 -0.235 0.016 -0.332 0.047 c -0.098 0.031 -0.184 0.068 -0.258 0.111 c -0.07 0.039 -0.131 0.08 -0.182 0.123 c -0.051 0.043 -0.088 0.076 -0.111 0.1 l -0.199 -0.264 c 0.023 -0.027 0.065 -0.066 0.123 -0.117 c 0.062 -0.055 0.139 -0.108 0.229 -0.158 c 0.094 -0.051 0.201 -0.094 0.322 -0.129 c 0.121 -0.039 0.254 -0.059 0.402 -0.059 z" style="fill:#353535;fill-opacity:1"/>
</svg>
